groups/sulfur/sulfonyl_acetamide.svg

<?xml version='1.0' encoding='iso-8859-1'?>
<svg version='1.1' baseProfile='full'
              xmlns='http://www.w3.org/2000/svg'
                      xmlns:rdkit='http://www.rdkit.org/xml'
                      xmlns:xlink='http://www.w3.org/1999/xlink'
                  xml:space='preserve'
width='256px' height='256px' viewBox='0 0 256 256'>
<!-- END OF HEADER -->
<rect style='opacity:1.0;fill:#FFFFFF;stroke:none' width='256.0' height='256.0' x='0.0' y='0.0'> </rect>
<path class='bond-0 atom-0 atom-1' d='M 133.5,12.9 L 133.6,57.7' style='fill:none;fill-rule:evenodd;stroke:#000000;stroke-width:2.0px;stroke-linecap:butt;stroke-linejoin:miter;stroke-opacity:1' />
<path class='bond-1 atom-1 atom-2' d='M 121.5,65.5 L 88.9,65.7' style='fill:none;fill-rule:evenodd;stroke:#000000;stroke-width:2.0px;stroke-linecap:butt;stroke-linejoin:miter;stroke-opacity:1' />
<path class='bond-1 atom-1 atom-2' d='M 121.6,74.1 L 88.9,74.2' style='fill:none;fill-rule:evenodd;stroke:#000000;stroke-width:2.0px;stroke-linecap:butt;stroke-linejoin:miter;stroke-opacity:1' />
<path class='bond-2 atom-1 atom-3' d='M 145.8,74.0 L 178.4,73.9' style='fill:none;fill-rule:evenodd;stroke:#000000;stroke-width:2.0px;stroke-linecap:butt;stroke-linejoin:miter;stroke-opacity:1' />
<path class='bond-2 atom-1 atom-3' d='M 145.8,65.5 L 178.4,65.3' style='fill:none;fill-rule:evenodd;stroke:#000000;stroke-width:2.0px;stroke-linecap:butt;stroke-linejoin:miter;stroke-opacity:1' />
<path class='bond-3 atom-1 atom-4' d='M 133.7,88.7 L 133.8,114.5' style='fill:none;fill-rule:evenodd;stroke:#000000;stroke-width:2.0px;stroke-linecap:butt;stroke-linejoin:miter;stroke-opacity:1' />
<path class='bond-4 atom-4 atom-5' d='M 146.0,133.6 L 171.1,147.9' style='fill:none;fill-rule:evenodd;stroke:#000000;stroke-width:2.0px;stroke-linecap:butt;stroke-linejoin:miter;stroke-opacity:1' />
<path class='bond-5 atom-4 atom-6' d='M 121.8,133.7 L 84.7,155.2' style='fill:none;fill-rule:evenodd;stroke:#000000;stroke-width:2.0px;stroke-linecap:butt;stroke-linejoin:miter;stroke-opacity:1' />
<path class='bond-6 atom-6 atom-7' d='M 89.0,152.8 L 49.6,130.2' style='fill:none;fill-rule:evenodd;stroke:#000000;stroke-width:2.0px;stroke-linecap:butt;stroke-linejoin:miter;stroke-opacity:1' />
<path class='bond-6 atom-6 atom-7' d='M 84.7,160.2 L 45.4,137.6' style='fill:none;fill-rule:evenodd;stroke:#000000;stroke-width:2.0px;stroke-linecap:butt;stroke-linejoin:miter;stroke-opacity:1' />
<path class='bond-7 atom-6 atom-8' d='M 84.7,155.2 L 84.9,200.0' style='fill:none;fill-rule:evenodd;stroke:#000000;stroke-width:2.0px;stroke-linecap:butt;stroke-linejoin:miter;stroke-opacity:1' />
<path d='M 86.6,154.2 L 84.7,155.2 L 84.7,157.5' style='fill:none;stroke:#000000;stroke-width:2.0px;stroke-linecap:butt;stroke-linejoin:miter;stroke-miterlimit:10;stroke-opacity:1;' />
<path class='atom-1' d='M105.022,13.0047 C105.029,15.137 107.872,15.1268 107.865,12.9945 C107.857,10.8622 110.7,10.8519 110.708,12.9842 C110.716,15.1165 113.559,15.1063 113.551,12.974 C113.543,10.8417 116.386,10.8315 116.394,12.9638 C116.402,15.0961 119.245,15.0858 119.237,12.9535 C119.23,10.8212 122.073,10.811 122.08,12.9433 C122.088,15.0756 124.931,15.0654 124.924,12.9331 C124.916,10.8007 127.759,10.7905 127.767,12.9228 C127.774,15.0551 130.618,15.0449 130.61,12.9126 C130.602,10.7803 133.445,10.77 133.453,12.9024 C133.461,15.0347 136.304,15.0244 136.296,12.8921 C136.288,10.7598 139.132,10.7496 139.139,12.8819 C139.147,15.0142 141.99,15.004 141.982,12.8716 C141.975,10.7393 144.818,10.7291 144.826,12.8614 C144.833,14.9937 147.676,14.9835 147.669,12.8512 C147.661,10.7189 150.504,10.7086 150.512,12.8409 C150.52,14.9733 153.363,14.963 153.355,12.8307 C153.347,10.6984 156.19,10.6882 156.198,12.8205 C156.206,14.9528 159.049,14.9425 159.041,12.8102 C159.034,10.6779 161.877,10.6677 161.884,12.8' style='fill:none;stroke:#7F7F7F;stroke-width:2.0px;stroke-linecap:butt;stroke-linejoin:miter;stroke-opacity:1' />
<text x='123.4' y='86.8' class='atom-1' style='font-size:34px;font-style:normal;font-weight:normal;fill-opacity:1;stroke:none;font-family:sans-serif;text-anchor:start;fill:#000000' >S</text>
<text x='66.6' y='87.0' class='atom-2' style='font-size:34px;font-style:normal;font-weight:normal;fill-opacity:1;stroke:none;font-family:sans-serif;text-anchor:start;fill:#000000' >O</text>
<text x='180.3' y='86.6' class='atom-3' style='font-size:34px;font-style:normal;font-weight:normal;fill-opacity:1;stroke:none;font-family:sans-serif;text-anchor:start;fill:#000000' >O</text>
<text x='123.6' y='143.7' class='atom-4' style='font-size:34px;font-style:normal;font-weight:normal;fill-opacity:1;stroke:none;font-family:sans-serif;text-anchor:start;fill:#000000' >N</text>
<text x='173.0' y='171.9' class='atom-5' style='font-size:34px;font-style:normal;font-weight:normal;fill-opacity:1;stroke:none;font-family:sans-serif;text-anchor:start;fill:#000000' >C</text>
<text x='196.5' y='171.9' class='atom-5' style='font-size:34px;font-style:normal;font-weight:normal;fill-opacity:1;stroke:none;font-family:sans-serif;text-anchor:start;fill:#000000' >H</text>
<text x='220.1' y='185.6' class='atom-5' style='font-size:22px;font-style:normal;font-weight:normal;fill-opacity:1;stroke:none;font-family:sans-serif;text-anchor:start;fill:#000000' >3</text>
<text x='25.1' y='144.0' class='atom-7' style='font-size:34px;font-style:normal;font-weight:normal;fill-opacity:1;stroke:none;font-family:sans-serif;text-anchor:start;fill:#000000' >O</text>
<text x='74.7' y='229.2' class='atom-8' style='font-size:34px;font-style:normal;font-weight:normal;fill-opacity:1;stroke:none;font-family:sans-serif;text-anchor:start;fill:#000000' >C</text>
<text x='98.2' y='229.2' class='atom-8' style='font-size:34px;font-style:normal;font-weight:normal;fill-opacity:1;stroke:none;font-family:sans-serif;text-anchor:start;fill:#000000' >H</text>
<text x='121.8' y='242.8' class='atom-8' style='font-size:22px;font-style:normal;font-weight:normal;fill-opacity:1;stroke:none;font-family:sans-serif;text-anchor:start;fill:#000000' >3</text>
</svg>

<svg height="256" viewBox="0 0 256 256" width="256" xmlns="http://www.w3.org/2000/svg"><path d="m0 0h256v256h-256z" fill="#fff"/><g fill="none" stroke-width="2"><path d="m133.5 12.9.1 44.8" stroke="#000"/><path d="m121.5 65.5-32.6.2" stroke="#000"/><path d="m121.6 74.1-32.7.1" stroke="#000"/><path d="m145.8 74 32.6-.1" stroke="#000"/><path d="m145.8 65.5 32.6-.2" stroke="#000"/><path d="m133.7 88.7.1 25.8" stroke="#000"/><path d="m146 133.6 25.1 14.3" stroke="#000"/><path d="m121.8 133.7-37.1 21.5" stroke="#000"/><path d="m89 152.8-39.4-22.6" stroke="#000"/><path d="m84.7 160.2-39.3-22.6" stroke="#000"/><path d="m84.7 155.2.2 44.8" stroke="#000"/><path d="m86.6 154.2-1.9 1v2.3" stroke="#000" stroke-miterlimit="10"/><path d="m105.022 13.005c.007 2.132 2.85 2.122 2.843-.01-.008-2.133 2.835-2.143 2.843-.011.008 2.133 2.851 2.122 2.843-.01s2.835-2.142 2.843-.01 2.851 2.122 2.843-.01c-.007-2.133 2.836-2.143 2.843-.011.008 2.133 2.851 2.122 2.844-.01-.008-2.132 2.835-2.142 2.843-.01.007 2.132 2.851 2.122 2.843-.01-.008-2.133 2.835-2.143 2.843-.011.008 2.133 2.851 2.122 2.843-.01s2.836-2.142 2.843-.01c.008 2.132 2.851 2.122 2.843-.01-.007-2.133 2.836-2.143 2.844-.011.007 2.133 2.85 2.123 2.843-.01-.008-2.132 2.835-2.142 2.843-.01s2.851 2.122 2.843-.01c-.008-2.133 2.835-2.143 2.843-.01.008 2.132 2.851 2.122 2.843-.011-.007-2.132 2.836-2.142 2.843-.01" stroke="#7f7f7f"/></g><text font-family="sans-serif" font-size="34" x="123.4" y="86.8">S</text><text font-family="sans-serif" font-size="34" x="66.6" y="87">O</text><text font-family="sans-serif" font-size="34" x="180.3" y="86.6">O</text><text font-family="sans-serif" font-size="34" x="123.6" y="143.7">N</text><text font-family="sans-serif" font-size="34" x="173" y="171.9">C</text><text font-family="sans-serif" font-size="34" x="196.5" y="171.9">H</text><text font-family="sans-serif" font-size="22" x="220.1" y="185.6">3</text><text font-family="sans-serif" font-size="34" x="25.1" y="144">O</text><text font-family="sans-serif" font-size="34" x="74.7" y="229.2">C</text><text font-family="sans-serif" font-size="34" x="98.2" y="229.2">H</text><text font-family="sans-serif" font-size="22" x="121.8" y="242.8">3</text></svg>
